X:140
T:Mountain Girl Breakdown
C:Ward Allen
R:Breakdown
M:2/4
L:1/16
Z:abc by Bruce Osborne - bosborne@kos.net
K:A
e4 e3f|edcB Ac (3efg|a4 a3b|afed cBA2|
E3E G2B2|g4 g4|g3f gec2|A8:|
|:A4 A3B|AFED CB,CB,|A,G,A,B, CB,CD|EGAB cdcA|
EDEF GFGA|Bdef g2g2|g3a gfec|A8:|
